X:1
T:Muscat, 87.87.87 D
T:Muscat, 87.87.87 D
T:G. W. Jackson, 1871
T:Public Domain Courtesy of the Cyber Hymnal™
C:G. W. Jackson, 1871
Z:Public Domain
Z:Courtesy of the Cyber Hymnal™
%%score ( 1 2 ) ( 3 4 )
L:1/8
Q:1/4=100
M:4/4
K:Eb
V:1 treble 
V:2 treble 
V:3 bass 
V:4 bass 
V:1
 [EG]2 [EG]2 [EG][EG][EG][EG] | (B=A) [E_A]2 z2 [DA][EG] | [EF]2 [DF]2 [EB]2 A2 | %3
 [EG]4 z2 [GB][GB] | [GB]3 [GB] [GB]2 [GB]2 | [EB]2 [EA]2 z2 [CA][CF] | %6
 [B,E]3 [B,E] !fermata![B,G]3 [B,F] | F4 E2 z2 | [CE]3 [CE] [CE][CE][=B,D][CE] | (AG) [DG]4 z2 | %10
 [DF]3 [DF] [^C=E][DF][EB]A | [EG]6 z2 | [GB]3 [GB] [^F=A][GB] [Ge]>[EG] | %13
 [EB]2 [EA]2 z2 [CG][CF] | [B,E]3 [B,E] [B,G]2 [B,F]2 | [B,E]6 z2 | E3 [EF] [EG][EA][EB][Ec] | %17
 (BA) E2 z4 | [=Ec]3 [Fc] [Gc][GB][FA][EG] | F6 z2 | [Ee]3 [Ad] [Ge][Ge][Gf][Ge] | %21
 [Ae]2 [Ec]2 z2 [CA][CF] | [B,E]3 [B,E] !fermata![B,G]3 [B,F] | (F4 E2) |] %24
V:2
 x8 | E2 x6 | x6 (ED) | x8 | x8 | x8 | x8 | B,6 x2 | x8 | D2 x6 | x7 (=E/D/) | x8 | x8 | x8 | x8 | %15
 x8 | E3 x5 | E2 E2 x4 | x8 | F6 x2 | x8 | x8 | x8 | B,6 |] %24
V:3
 [E,B,]2 [E,B,]2 [E,B,][E,B,][D,B,][_D,B,] | [C,C]2 [F,C]2 z2 [F,B,][E,B,] | %2
 [B,,B,]2 [B,,A,]2 [B,,G,]2 (F,B,) | [E,B,]4 z2 [E,B,][E,B,] | [E,B,]3 [E,E] [E,D]2 [E,_D]2 | %5
 [E,C]2 [E,C]2 z2 [A,,F,][A,,A,] | [B,,G,]3 [B,,G,] !fermata![B,,A,]3 [D,A,] | A,4 G,2 z2 | %8
 [C,G,]3 [C,G,] [C,^F,][C,G,][C,A,][C,G,] | [C,F,]2 [=B,,F,]4 z2 | %10
 [B,,A,]3 [B,,A,] [B,,G,][B,,A,] [B,,G,] (F,/B,/) | [E,B,]6 z2 | %12
 [E,_D]3 [E,D] [E,C][E,D] [E,D]>[E,D] | [E,C]2 [E,C]2 z2 [A,,A,][A,,A,] | %14
 [B,,G,]3 [B,,G,] [B,,A,]2 [D,A,]2 | (A,4 G,2) z2 | [E,_D]3 [E,D] [E,D][E,D][E,D][E,D] | %17
 [E,C]2 [E,C]2 z4 | [C,C]3 [D,C] [=E,C][E,C][F,C][B,C] | [A,C]6 z2 | %20
 [G,B,]3 B, [E,B,][E,_D][E,D][E,D] | [E,C]2 A,2 z2 [A,,F,][A,,A,] | %22
 [B,,G,]3 [B,,G,] !fermata![B,,A,]3 [D,A,] | (A,4 G,2) |] %24
V:4
 x8 | x8 | x6 B,,2 | x8 | x8 | x8 | x8 | E,6 x2 | x8 | x8 | x7 B,, | x8 | x8 | x8 | x8 | E,6 x2 | %16
 x8 | x8 | x8 | x8 | x8 | x2 A,2 x4 | x8 | E,6 |] %24

